Newaita-dark/actions/22/flag-yellow.svg

<svg height="22" viewBox="0 0 22 22" width="22" xmlns="http://www.w3.org/2000/svg"><path d="m3.183594 5.628906c-.25 0-.453125.203125-.453125.457032v6.367187c0 .25.203125.453125.453125.453125h6.695312l-.3125 1.253906c-.074218.285156.144532.566406.4375.566406h9.550782c.421874-.003906.617187-.523437.300781-.796874l-3.25-2.84375 3.25-2.839844c.316406-.277344.121093-.796875-.300781-.796875h-7.148438l.3125-1.253907c.074219-.289062-.144531-.566406-.4375-.566406zm0 0" fill="#ffa726"/><g fill="#e0e0e0"><path d="m2.730469 3.355469h.90625c.253906 0 .457031.203125.457031.453125v15.917968c0 .253907-.203125.457032-.457031.457032h-.90625c-.253907 0-.457031-.203125-.457031-.457032v-15.917968c0-.25.203124-.453125.457031-.453125zm0 0"/><path d="m3.183594 1.992188c.753906 0 1.363281.609374 1.363281 1.363281 0 .753906-.609375 1.363281-1.363281 1.363281s-1.363282-.609375-1.363282-1.363281c0-.753907.609376-1.363281 1.363282-1.363281zm0 0"/></g></svg>

<?xml version="1.0" encoding="UTF-8"?>
<svg xmlns="http://www.w3.org/2000/svg" xmlns:xlink="http://www.w3.org/1999/xlink" width="22px" height="22px" viewBox="0 0 22 22" version="1.1">
<g id="surface1">
<path style=" stroke:none;fill-rule:nonzero;fill:rgb(100%,65.490198%,14.901961%);fill-opacity:1;" d="M 3.183594 5.628906 C 2.933594 5.628906 2.730469 5.832031 2.730469 6.085938 L 2.730469 12.453125 C 2.730469 12.703125 2.933594 12.90625 3.183594 12.90625 L 9.878906 12.90625 L 9.566406 14.160156 C 9.492188 14.445312 9.710938 14.726562 10.003906 14.726562 L 19.554688 14.726562 C 19.976562 14.722656 20.171875 14.203125 19.855469 13.929688 L 16.605469 11.085938 L 19.855469 8.246094 C 20.171875 7.96875 19.976562 7.449219 19.554688 7.449219 L 12.40625 7.449219 L 12.71875 6.195312 C 12.792969 5.90625 12.574219 5.628906 12.28125 5.628906 Z M 3.183594 5.628906 "/>
<path style=" stroke:none;fill-rule:nonzero;fill:rgb(87.843138%,87.843138%,87.843138%);fill-opacity:1;" d="M 2.730469 3.355469 L 3.636719 3.355469 C 3.890625 3.355469 4.09375 3.558594 4.09375 3.808594 L 4.09375 19.726562 C 4.09375 19.980469 3.890625 20.183594 3.636719 20.183594 L 2.730469 20.183594 C 2.476562 20.183594 2.273438 19.980469 2.273438 19.726562 L 2.273438 3.808594 C 2.273438 3.558594 2.476562 3.355469 2.730469 3.355469 Z M 2.730469 3.355469 "/>
<path style=" stroke:none;fill-rule:nonzero;fill:rgb(87.843138%,87.843138%,87.843138%);fill-opacity:1;" d="M 3.183594 1.992188 C 3.9375 1.992188 4.546875 2.601562 4.546875 3.355469 C 4.546875 4.109375 3.9375 4.71875 3.183594 4.71875 C 2.429688 4.71875 1.820312 4.109375 1.820312 3.355469 C 1.820312 2.601562 2.429688 1.992188 3.183594 1.992188 Z M 3.183594 1.992188 "/>
</g>
</svg>
